X:634
T:Johnnie Cope - harmony 2
S:Harmony by Nigel Gatherer
Z:Nigel Gatherer
M:4/4
L:1/8
K:Em
V:1
B2 | E2 E2 EFGA  | B2 E2  E2  FE   | D2  D2  DEFG  | A2  d2 F2 D2 |
     G2 FG A2 GA | B2 d2  F2  ED   | E2  e2  BAGF  | E2  G2 E2   :|
D2 | G3  G G2 D2 | GABc   dBAG     | F2 D2   A2 D2 | FGAB   A2 F2 |
     G2 FG A2 GA | B2 d2  F2  ED   | E2  e2  BAGF  | E2  G2 E2   :|
D2 | E^DEF EFGA  | BAGF   EFGE     | D=CDE   DEFG  | AdAF   BAGF  |
     GFEG  AFGA  | BB,DF  BAGF     | E^FEe   BAGF  | E2  G2 E2   :|
D2 | GFGA  GDB,D | GFGB   dBAG     | FDAD    BDAD  | FEFG   AFDF  |
     GFEG  AFGA  | BB,DF  BAGF     | E^DEe   BAGF  | E2  G2 E2  :|]
V:2
z2 | B2 B2 GABc  | e2 B2  G3    z   | A2 A2   FGAB  | A2 A2  d2 A2 |
     E4    D4    | B,4    A,2 G,A, | B,2 B,2 E2 G2 | B2  B2 B2   :|
z2 | d4    d4    | d4     d4       | d4      d4    | d4     d4    |
     E4    D4    | B,4    A,2 G,A, | B,2 B,2 E2 G2 | B2  B2 B2   :|
z2 | B2 B2 G2 B2 | d2 c2  B2  G2   | A2 A2   F2 A2 | d2 c2  B2 BA |
     G2 B2 A2 c2 | B2 g2  e2  c2   | B2 G2   B2 D2 | E2 E2  E2   :|
z2 | D2 G2 B2 G2 | D2 G2  B2  DB,  | D2  F2  D2 DB,| DEFG   A4    |
     g2 a2 f2 d2 | d2 d2  dcBA     | G2  B2  dcBA  | G2 BA  G2  :|]
